fonts/P.svg

<?xml version="1.0" encoding="UTF-8" standalone="no"?>
<!-- Created with Inkscape (http://www.inkscape.org/) -->
<svg
   xmlns:dc="http://purl.org/dc/elements/1.1/"
   xmlns:cc="http://creativecommons.org/ns#"
   xmlns:rdf="http://www.w3.org/1999/02/22-rdf-syntax-ns#"
   xmlns:svg="http://www.w3.org/2000/svg"
   xmlns="http://www.w3.org/2000/svg"
   xmlns:sodipodi="http://sodipodi.sourceforge.net/DTD/sodipodi-0.dtd"
   xmlns:inkscape="http://www.inkscape.org/namespaces/inkscape"
   width="1000"
   height="1000"
   id="svg2"
   sodipodi:version="0.32"
   inkscape:version="0.46+devel"
   version="1.0"
   sodipodi:docname="P.svg"
   inkscape:output_extension="org.inkscape.output.svg.inkscape"
   style="display:inline">
  <defs
     id="defs4">
    <inkscape:perspective
       sodipodi:type="inkscape:persp3d"
       inkscape:vp_x="0 : 526.18109 : 1"
       inkscape:vp_y="0 : 1000 : 0"
       inkscape:vp_z="744.09448 : 526.18109 : 1"
       inkscape:persp3d-origin="372.04724 : 350.78739 : 1"
       id="perspective10" />
    <inkscape:perspective
       id="perspective8089"
       inkscape:persp3d-origin="0.5 : 0.33333333 : 1"
       inkscape:vp_z="1 : 0.5 : 1"
       inkscape:vp_y="0 : 1000 : 0"
       inkscape:vp_x="0 : 0.5 : 1"
       sodipodi:type="inkscape:persp3d" />
    <inkscape:perspective
       id="perspective8102"
       inkscape:persp3d-origin="0.5 : 0.33333333 : 1"
       inkscape:vp_z="1 : 0.5 : 1"
       inkscape:vp_y="0 : 1000 : 0"
       inkscape:vp_x="0 : 0.5 : 1"
       sodipodi:type="inkscape:persp3d" />
    <inkscape:perspective
       id="perspective9638"
       inkscape:persp3d-origin="372.04724 : 350.78739 : 1"
       inkscape:vp_z="744.09448 : 526.18109 : 1"
       inkscape:vp_y="0 : 1000 : 0"
       inkscape:vp_x="0 : 526.18109 : 1"
       sodipodi:type="inkscape:persp3d" />
  </defs>
  <sodipodi:namedview
     id="base"
     pagecolor="#ffffff"
     bordercolor="#666666"
     borderopacity="1.0"
     gridtolerance="10000"
     guidetolerance="10"
     objecttolerance="10"
     inkscape:pageopacity="0.0"
     inkscape:pageshadow="2"
     inkscape:zoom="1"
     inkscape:cx="414.90874"
     inkscape:cy="491.99917"
     inkscape:document-units="px"
     inkscape:current-layer="layer1"
     showgrid="true"
     borderlayer="true"
     inkscape:showpageshadow="false"
     inkscape:snap-bbox="true"
     inkscape:snap-nodes="true"
     showguides="true"
     inkscape:guide-bbox="true"
     inkscape:window-width="1239"
     inkscape:window-height="1030"
     inkscape:window-x="234"
     inkscape:window-y="72">
    <sodipodi:guide
       orientation="0,1"
       position="565.71429,200"
       id="guide8078" />
    <sodipodi:guide
       orientation="0,1"
       position="880,800"
       id="guide8080" />
    <inkscape:grid
       type="xygrid"
       id="grid8979"
       visible="true"
       enabled="true" />
    <sodipodi:guide
       orientation="0,1"
       position="1357.645,620"
       id="guide8993" />
    <sodipodi:guide
       orientation="0,1"
       position="870,510"
       id="guide8997" />
    <sodipodi:guide
       orientation="0,1"
       position="597,310"
       id="guide8999" />
    <sodipodi:guide
       orientation="-0.37460659,0.92718385"
       position="460,186"
       id="guide9513" />
    <sodipodi:guide
       orientation="0.37460659,0.92718385"
       position="658,384"
       id="guide9515" />
    <sodipodi:guide
       orientation="1,0"
       position="-132,462"
       id="guide9625" />
    <sodipodi:guide
       orientation="-0.27563736,0.9612617"
       position="924.89567,905.09668"
       id="guide9962" />
    <sodipodi:guide
       orientation="0,1"
       position="602.45498,438.4062"
       id="guide14482" />
  </sodipodi:namedview>
  <metadata
     id="metadata7">
    <rdf:RDF>
      <cc:Work
         rdf:about="">
        <dc:format>image/svg+xml</dc:format>
        <dc:type
           rdf:resource="http://purl.org/dc/dcmitype/StillImage" />
      </cc:Work>
    </rdf:RDF>
  </metadata>
  <g
     inkscape:label="Layer 1"
     inkscape:groupmode="layer"
     id="layer1"
     style="display:inline">
    <g
       id="g9629"
       transform="matrix(0.8901714,0,0,-0.8901714,-42.22279,801.94124)" />
    <path
       style="fill:#000000;fill-opacity:1;fill-rule:nonzero;stroke:none;stroke-width:1;stroke-linecap:butt;stroke-linejoin:miter;marker:none;marker-start:none;marker-mid:none;marker-end:none;stroke-miterlimit:4;stroke-dashoffset:0;stroke-opacity:1;visibility:visible;display:inline;overflow:visible;enable-background:accumulate"
       d="m 430,800 c 0,0 0,-238 0,-238 0,0 145,0 145,0 50,0 115,-37.48561 115,-110 l 0,-136.46182 C 690,250 640,200 570,200 l -250,0 0,600 c 0,0 110,0 110,0 z M 580,442 c 0,5.50568 -4.74432,10 -10.25,10 l -139.75,0 0,-141.05508 140,0 c 4.75657,0 10,5.24375 10,10.25 L 580,442 z"
       id="rect9615"
       sodipodi:nodetypes="cccccccccccccccc" />
  </g>
</svg>

<?xml version="1.0" encoding="UTF-8" standalone="no"?>
<!-- Created with Inkscape (http://www.inkscape.org/) -->
<svg
   xmlns:dc="http://purl.org/dc/elements/1.1/"
   xmlns:cc="http://creativecommons.org/ns#"
   xmlns:rdf="http://www.w3.org/1999/02/22-rdf-syntax-ns#"
   xmlns:svg="http://www.w3.org/2000/svg"
   xmlns="http://www.w3.org/2000/svg"
   xmlns:sodipodi="http://sodipodi.sourceforge.net/DTD/sodipodi-0.dtd"
   xmlns:inkscape="http://www.inkscape.org/namespaces/inkscape"
   width="1000"
   height="1000"
   id="svg2"
   sodipodi:version="0.32"
   inkscape:version="0.46"
   version="1.0"
   sodipodi:docname="P.svg"
   inkscape:output_extension="org.inkscape.output.svg.inkscape"
   style="display:inline">
  <defs
     id="defs4">
    <inkscape:perspective
       sodipodi:type="inkscape:persp3d"
       inkscape:vp_x="0 : 526.18109 : 1"
       inkscape:vp_y="0 : 1000 : 0"
       inkscape:vp_z="744.09448 : 526.18109 : 1"
       inkscape:persp3d-origin="372.04724 : 350.78739 : 1"
       id="perspective10" />
    <inkscape:perspective
       id="perspective8089"
       inkscape:persp3d-origin="0.5 : 0.33333333 : 1"
       inkscape:vp_z="1 : 0.5 : 1"
       inkscape:vp_y="0 : 1000 : 0"
       inkscape:vp_x="0 : 0.5 : 1"
       sodipodi:type="inkscape:persp3d" />
    <inkscape:perspective
       id="perspective8102"
       inkscape:persp3d-origin="0.5 : 0.33333333 : 1"
       inkscape:vp_z="1 : 0.5 : 1"
       inkscape:vp_y="0 : 1000 : 0"
       inkscape:vp_x="0 : 0.5 : 1"
       sodipodi:type="inkscape:persp3d" />
    <inkscape:perspective
       id="perspective9638"
       inkscape:persp3d-origin="372.04724 : 350.78739 : 1"
       inkscape:vp_z="744.09448 : 526.18109 : 1"
       inkscape:vp_y="0 : 1000 : 0"
       inkscape:vp_x="0 : 526.18109 : 1"
       sodipodi:type="inkscape:persp3d" />
  </defs>
  <sodipodi:namedview
     id="base"
     pagecolor="#ffffff"
     bordercolor="#666666"
     borderopacity="1.0"
     gridtolerance="10000"
     guidetolerance="10"
     objecttolerance="10"
     inkscape:pageopacity="0.0"
     inkscape:pageshadow="2"
     inkscape:zoom="0.35355339"
     inkscape:cx="561.99048"
     inkscape:cy="547.03253"
     inkscape:document-units="px"
     inkscape:current-layer="layer1"
     showgrid="true"
     borderlayer="true"
     inkscape:showpageshadow="false"
     inkscape:snap-bbox="true"
     inkscape:snap-nodes="true"
     showguides="true"
     inkscape:guide-bbox="true"
     inkscape:window-width="1239"
     inkscape:window-height="1030"
     inkscape:window-x="200"
     inkscape:window-y="79">
    <sodipodi:guide
       orientation="0,1"
       position="565.71429,200"
       id="guide8078" />
    <sodipodi:guide
       orientation="0,1"
       position="880,800"
       id="guide8080" />
    <inkscape:grid
       type="xygrid"
       id="grid8979"
       visible="true"
       enabled="true" />
    <sodipodi:guide
       orientation="0,1"
       position="1357.645,620"
       id="guide8993" />
    <sodipodi:guide
       orientation="0,1"
       position="870,510"
       id="guide8997" />
    <sodipodi:guide
       orientation="0,1"
       position="597,310"
       id="guide8999" />
    <sodipodi:guide
       orientation="-0.37460659,0.92718385"
       position="460,186"
       id="guide9513" />
    <sodipodi:guide
       orientation="0.37460659,0.92718385"
       position="658,384"
       id="guide9515" />
    <sodipodi:guide
       orientation="1,0"
       position="-132,462"
       id="guide9625" />
    <sodipodi:guide
       orientation="-0.27563736,0.9612617"
       position="924.89567,905.09668"
       id="guide9962" />
    <sodipodi:guide
       orientation="0,1"
       position="602.45498,438.4062"
       id="guide14482" />
  </sodipodi:namedview>
  <metadata
     id="metadata7">
    <rdf:RDF>
      <cc:Work
         rdf:about="">
        <dc:format>image/svg+xml</dc:format>
        <dc:type
           rdf:resource="http://purl.org/dc/dcmitype/StillImage" />
      </cc:Work>
    </rdf:RDF>
  </metadata>
  <g
     inkscape:label="Layer 1"
     inkscape:groupmode="layer"
     id="layer1"
     style="display:inline">
    <g
       id="g9629"
       transform="matrix(0.8901714,0,0,-0.8901714,-42.22279,801.94124)" />
    <path
       style="fill:#000000;fill-opacity:1;fill-rule:nonzero;stroke:none;stroke-width:1;stroke-linecap:butt;stroke-linejoin:miter;marker:none;marker-start:none;marker-mid:none;marker-end:none;stroke-miterlimit:4;stroke-dashoffset:0;stroke-opacity:1;visibility:visible;display:inline;overflow:visible;enable-background:accumulate"
       d="M 430,800 L 430,562 L 575,562 C 625,562 690,524.51439 690,452 L 690,315.53818 C 690,238.53656 649.5154,181.55139 555.5154,205.55139 L 430,243.19443 L 430,200 L 320,200 L 320,800 C 320,800 430,800 430,800 z M 580,442 C 580,447.50568 575.25568,452 569.75,452 L 430,452 L 430,310.94492 L 570,310.94492 C 574.75657,310.94492 580,316.18867 580,321.19492 L 580,442 z"
       id="rect9615"
       sodipodi:nodetypes="cccccccccccccccccc" />
  </g>
</svg>
